X: 21380
T: Kerry Recruit, The
R: waltz
M: 3/4
K: Gmajor
F2|F2 D2 D2|D4 F G|F E E3 E|E4 A A|B2 A2 A2|A2 z2 E F|E2 D2 D2|
D2 z2 D F|E2 D2 D2|D4 F G|F E E3 E|E4 A A|B2 A2 A2|F4 E F|E2 D2 D2|
D2 E2 F2|E2 D2 D2|D4 F G|F2 E2 E2|E4 A G|B2 A2 A2|F2 E2 F2|E2 D2 D2|D4||

